packages/ui-icons/src/Service-logos/24/Gett.svg

<svg viewBox="0 0 32 32" fill="none" xmlns="http://www.w3.org/2000/svg">
<path d="M16 28C22.6274 28 28 22.6274 28 16C28 9.37258 22.6274 4 16 4C9.37258 4 4 9.37258 4 16C4 22.6274 9.37258 28 16 28Z" fill="white"/>
<path fill-rule="evenodd" clip-rule="evenodd" d="M3.5 16C3.5 9.09644 9.09644 3.5 16 3.5C22.9036 3.5 28.5 9.09644 28.5 16C28.5 22.9036 22.9036 28.5 16 28.5C9.09644 28.5 3.5 22.9036 3.5 16ZM16 4.5C9.64873 4.5 4.5 9.64873 4.5 16C4.5 22.3513 9.64873 27.5 16 27.5C22.3513 27.5 27.5 22.3513 27.5 16C27.5 9.64873 22.3513 4.5 16 4.5Z" fill="#D8D8D8"/>
<path d="M16.4759 16.2264C16.4213 15.7459 16.0005 15.3909 15.4552 15.3909C14.9252 15.3909 14.4889 15.8123 14.4344 16.2264H16.4759ZM17.0453 17.6708C17.0677 17.6852 17.0829 17.7079 17.0869 17.7333C17.091 17.7587 17.0837 17.7846 17.0667 17.8046C16.7191 18.2208 16.2277 18.4875 15.5175 18.4875C14.3564 18.4875 13.5306 17.704 13.5306 16.5876C13.5306 15.5008 14.3643 14.6876 15.4706 14.6876C16.585 14.6876 17.3719 15.5082 17.3719 16.5876C17.3719 16.624 17.3702 16.6949 17.3687 16.7532C17.3674 16.805 17.3227 16.8463 17.2681 16.8463H14.4266C14.4656 17.3712 14.9564 17.7631 15.5253 17.7631C15.9461 17.7631 16.1776 17.6178 16.3761 17.3757C16.4083 17.3359 16.4675 17.3264 16.5116 17.3541C16.6422 17.4384 16.9065 17.5837 17.0453 17.6708ZM19.6172 17.6435C19.1954 17.6435 19.0006 17.4587 19.0006 17.043V15.5229H19.441C19.4966 15.5229 19.5418 15.4801 19.5418 15.4273V14.8641C19.5417 14.8114 19.4966 14.7686 19.441 14.7685H19.0014V13.8642C19.0014 13.8389 18.9908 13.8145 18.9719 13.7966C18.953 13.7787 18.9273 13.7686 18.9006 13.7686H18.2268C18.1712 13.7686 18.1261 13.8114 18.1261 13.8642V14.7693H17.7059C17.6503 14.7693 17.6053 14.8121 17.6053 14.8649V15.428C17.6052 15.4533 17.6158 15.4777 17.6347 15.4956C17.6536 15.5135 17.6792 15.5236 17.7059 15.5236H18.1256V17.2047C18.1256 17.9893 18.6043 18.4595 19.3993 18.4595C19.5372 18.4595 19.6346 18.4449 19.743 18.4073C19.812 18.3828 19.8575 18.3199 19.8566 18.25L19.8544 17.7269C19.854 17.6996 19.8412 17.6738 19.8194 17.6561C19.7975 17.6383 19.7687 17.6302 19.7402 17.6339C19.6995 17.6394 19.6584 17.6426 19.6172 17.6435ZM22.0127 17.6435C21.5908 17.6435 21.3962 17.4587 21.3962 17.043V15.5229H21.8366C21.8633 15.5229 21.8889 15.5128 21.9078 15.4949C21.9266 15.4769 21.9372 15.4526 21.9372 15.4273V14.8641C21.9372 14.8114 21.8922 14.7686 21.8366 14.7685H21.3962V13.8642C21.3962 13.8114 21.3511 13.7686 21.2954 13.7686H20.6216C20.5949 13.7686 20.5693 13.7787 20.5504 13.7967C20.5316 13.8146 20.521 13.8389 20.521 13.8642V14.7693H20.1014C20.0458 14.7693 20.0008 14.8121 20.0007 14.8649V15.428C20.0007 15.4533 20.0113 15.4777 20.0302 15.4956C20.0491 15.5135 20.0747 15.5236 20.1014 15.5236H20.5212V17.2047C20.5212 17.9893 20.9999 18.4595 21.7949 18.4595C21.9327 18.4595 22.0301 18.4449 22.1385 18.4073C22.2075 18.3827 22.2529 18.3198 22.2522 18.25L22.25 17.7269C22.2495 17.6996 22.2367 17.6738 22.2148 17.656C22.193 17.6383 22.1642 17.6302 22.1356 17.6339C22.0949 17.6394 22.0538 17.6426 22.0127 17.6435ZM10.5006 15.889V16.4321C10.5006 16.4574 10.5112 16.4817 10.5301 16.4996C10.549 16.5175 10.5745 16.5275 10.6012 16.5275H12.1578C12.0416 17.2249 11.4381 17.7207 10.6314 17.7207C9.65013 17.7207 8.88693 16.9483 8.88693 16.0035C8.88693 15.0517 9.65733 14.2862 10.624 14.2862C11.1658 14.2862 11.626 14.4944 11.9276 14.8698C11.9588 14.9084 12.0155 14.9185 12.0593 14.8933L12.6434 14.5581C12.665 14.5457 12.6802 14.5251 12.6851 14.5015C12.69 14.4779 12.6843 14.4534 12.6693 14.4341C12.2405 13.8731 11.5039 13.5 10.6314 13.5C9.18569 13.5 8 14.6241 8 16.0035C8 17.3829 9.16379 18.5 10.624 18.5C12.0707 18.5 13.057 17.4587 13.057 16.1138V15.899C13.057 15.8737 13.0464 15.8494 13.0275 15.8314C13.0086 15.8135 12.9829 15.8034 12.9562 15.8034H10.5908C10.541 15.8034 10.5006 15.8417 10.5006 15.889Z" fill="#263238"/>
<path d="M23.4651 17.4261C23.2403 17.4261 23.1025 17.4584 23.0233 17.5499C22.9552 17.6284 22.9302 17.7506 22.9302 17.9336C22.9302 18.1267 22.9581 18.2523 23.0351 18.33C23.116 18.4118 23.251 18.441 23.4651 18.441C23.7101 18.441 23.851 18.4029 23.9263 18.2919C23.9798 18.2132 24 18.098 24 17.9336C24 17.7376 23.9712 17.6114 23.8917 17.5338C23.8123 17.4562 23.6761 17.4261 23.4651 17.4261Z" fill="#FF9D00"/>
</svg>

<svg viewBox="0 0 32 32" fill="none" xmlns="http://www.w3.org/2000/svg"><path d="M16 28c6.627 0 12-5.373 12-12S22.627 4 16 4 4 9.373 4 16s5.373 12 12 12Z" fill="#fff"/><path fill-rule="evenodd" clip-rule="evenodd" d="M3.5 16C3.5 9.096 9.096 3.5 16 3.5S28.5 9.096 28.5 16 22.904 28.5 16 28.5 3.5 22.904 3.5 16ZM16 4.5C9.649 4.5 4.5 9.649 4.5 16S9.649 27.5 16 27.5 27.5 22.351 27.5 16 22.351 4.5 16 4.5Z" fill="#D8D8D8"/><path d="M16.476 16.226c-.055-.48-.476-.835-1.02-.835-.53 0-.967.421-1.022.835h2.042Zm.57 1.445a.092.092 0 0 1 .04.062.088.088 0 0 1-.02.072c-.347.416-.838.683-1.548.683-1.162 0-1.987-.784-1.987-1.9 0-1.087.833-1.9 1.94-1.9 1.114 0 1.9.82 1.9 1.9 0 .036 0 .107-.002.165a.098.098 0 0 1-.1.093h-2.842c.039.525.53.917 1.098.917.421 0 .653-.145.851-.387a.104.104 0 0 1 .136-.022c.13.084.395.23.533.317Zm2.571-.027c-.422 0-.616-.185-.616-.601v-1.52h.44c.056 0 .1-.043.1-.096v-.563a.099.099 0 0 0-.1-.096h-.44v-.904c0-.025-.01-.05-.03-.067a.104.104 0 0 0-.07-.028h-.674c-.056 0-.1.042-.1.095v.905h-.421c-.056 0-.1.043-.1.096v.563c0 .025.01.05.029.068a.104.104 0 0 0 .07.028h.42v1.68c0 .785.48 1.255 1.274 1.255a.974.974 0 0 0 .344-.052.166.166 0 0 0 .114-.157l-.003-.523a.093.093 0 0 0-.035-.07.105.105 0 0 0-.079-.023c-.04.005-.082.009-.123.01Zm2.396 0c-.422 0-.617-.185-.617-.601v-1.52h.44c.027 0 .053-.01.072-.028a.094.094 0 0 0 .03-.068v-.563a.098.098 0 0 0-.101-.096h-.44v-.904a.098.098 0 0 0-.102-.095h-.673a.103.103 0 0 0-.072.028.093.093 0 0 0-.029.067v.905h-.42c-.055 0-.1.043-.1.096v.563c0 .025.01.05.03.068a.104.104 0 0 0 .07.028h.42v1.68c0 .785.479 1.255 1.274 1.255a.973.973 0 0 0 .343-.052.167.167 0 0 0 .114-.157l-.002-.523a.094.094 0 0 0-.035-.071.105.105 0 0 0-.08-.022c-.04.005-.081.009-.122.01ZM10.5 15.889v.543c0 .025.01.05.03.068a.103.103 0 0 0 .07.027h1.557c-.116.698-.72 1.194-1.527 1.194a1.722 1.722 0 0 1-1.744-1.718c0-.951.77-1.717 1.737-1.717.542 0 1.002.208 1.304.584a.104.104 0 0 0 .131.023l.584-.335a.086.086 0 0 0 .042-.056.082.082 0 0 0-.016-.068c-.428-.56-1.165-.934-2.038-.934C9.186 13.5 8 14.624 8 16.003c0 1.38 1.164 2.497 2.624 2.497 1.447 0 2.433-1.041 2.433-2.386v-.215c0-.025-.01-.05-.03-.068a.104.104 0 0 0-.07-.028H10.59c-.05 0-.09.039-.09.086Z" fill="#263238"/><path d="M23.465 17.426c-.225 0-.363.032-.442.124-.068.078-.093.2-.093.384 0 .193.028.318.105.396.081.082.216.111.43.111.245 0 .386-.038.461-.15.054-.078.074-.193.074-.357 0-.196-.029-.323-.108-.4-.08-.078-.216-.108-.427-.108Z" fill="#FF9D00"/></svg>
